app/assets/images/eva-logo.svg

<?xml version="1.0" encoding="UTF-8" standalone="no"?>
<svg
   xmlns:dc="http://purl.org/dc/elements/1.1/"
   xmlns:cc="http://creativecommons.org/ns#"
   xmlns:rdf="http://www.w3.org/1999/02/22-rdf-syntax-ns#"
   xmlns:svg="http://www.w3.org/2000/svg"
   xmlns="http://www.w3.org/2000/svg"
   xmlns:sodipodi="http://sodipodi.sourceforge.net/DTD/sodipodi-0.dtd"
   xmlns:inkscape="http://www.inkscape.org/namespaces/inkscape"
   inkscape:version="1.0beta2 (2b71d25, 2019-12-03)"
   sodipodi:docname="eva-logo.svg"
   id="svg14"
   version="1.1"
   fill="none"
   viewBox="0 0 86.400002 73.800003"
   height="73.800003"
   width="86.400002">
  <metadata
     id="metadata20">
    <rdf:RDF>
      <cc:Work
         rdf:about="">
        <dc:format>image/svg+xml</dc:format>
        <dc:type
           rdf:resource="http://purl.org/dc/dcmitype/StillImage" />
      </cc:Work>
    </rdf:RDF>
  </metadata>
  <defs
     id="defs18" />
  <sodipodi:namedview
     inkscape:current-layer="svg14"
     inkscape:window-maximized="0"
     inkscape:window-y="1135"
     inkscape:window-x="75"
     inkscape:cy="35.942029"
     inkscape:cx="91.594203"
     inkscape:zoom="3.45"
     showgrid="false"
     id="namedview16"
     inkscape:window-height="838"
     inkscape:window-width="1452"
     inkscape:pageshadow="2"
     inkscape:pageopacity="0"
     guidetolerance="10"
     gridtolerance="10"
     objecttolerance="10"
     borderopacity="1"
     inkscape:document-rotation="0"
     bordercolor="#666666"
     pagecolor="#ffffff" />
  <g
     id="g12"
     transform="scale(1.8)">
    <path
       inkscape:connector-curvature="0"
       id="path10"
       fill="white"
       d="m 23.558,3.56975 c -6.9686,0 -12.8314,5.66375 -12.8314,12.56805 0,0.9858 -0.80226,1.7849 -1.79194,1.7849 -0.98968,0 -1.79197,-0.7991 -1.79197,-1.7849 C 7.14269,7.18833 14.6848,0 23.558,0 c 8.8733,0 16.4154,7.18833 16.4154,16.1378 0,1.2874 -0.1332,2.5364 -0.3921,3.7355 0.918,0.0184 1.7813,0.199 2.59,0.5419 0.8545,0.3423 1.5767,0.7851 2.1667,1.3286 v -0.0302 c 0,-0.5234 0.1729,-0.9561 0.5188,-1.2984 0.3459,-0.3623 0.7833,-0.5435 1.3122,-0.5435 0.529,0 0.9664,0.1712 1.3122,0.5134 C 47.8271,20.7273 48,21.1701 48,21.7136 v 12.7722 c 0,0.5234 -0.1729,0.9663 -0.5188,1.3286 -0.3458,0.3422 -0.7832,0.5133 -1.3122,0.5133 -0.5289,0 -0.9663,-0.1711 -1.3122,-0.5133 -0.3255,-0.3422 -0.4984,-0.775 -0.5188,-1.2984 -0.5086,0.5838 -1.2003,1.087 -2.0751,1.5098 -0.8545,0.4026 -1.7598,0.6039 -2.716,0.6039 -1.4037,0 -2.6753,-0.3523 -3.8146,-1.0569 -1.1392,-0.7246 -2.0446,-1.721 -2.7159,-2.9892 -0.2106,-0.4102 -0.3871,-0.8382 -0.5296,-1.2842 l -7.5502,9.056 C 24.5962,40.7638 24.0909,41 23.558,41 23.0251,41 22.5199,40.7638 22.1794,40.3554 L 16.447,33.4797 c -0.6323,-0.7584 -0.5276,-1.8837 0.2337,-2.5134 0.7614,-0.6298 1.8912,-0.5255 2.5235,0.2328 l 4.3538,5.2222 10.071,-12.0795 c 1.768,-2.2437 2.7604,-5.0397 2.7604,-8.204 0,-6.9043 -5.8627,-12.56805 -12.8314,-12.56805 z M 36.4015,26.604 35.5814,27.5877 c -0.0214,0.2199 -0.0322,0.4459 -0.0322,0.6781 0,1.4493 0.4069,2.6571 1.2207,3.6233 0.8341,0.9461 1.9124,1.4192 3.2348,1.4192 1.3223,0 2.4006,-0.4731 3.2347,-1.4192 0.8341,-0.9662 1.2512,-2.174 1.2512,-3.6233 0,-1.4493 -0.4171,-2.6571 -1.2512,-3.6233 -0.8341,-0.9663 -1.9124,-1.4494 -3.2347,-1.4494 -0.6045,0 -1.1585,0.1042 -1.6621,0.3124 -0.5205,1.0874 -1.1603,2.1122 -1.9119,3.0626 -0.0096,0.0121 -0.0193,0.0241 -0.0292,0.0359 z m -21.4179,2.4469 c 0.3662,-0.302 0.5595,-0.6945 0.5798,-1.1776 0,-1.4292 -0.356,-2.7578 -1.068,-3.9857 -0.7121,-1.2279 -1.6683,-2.2042 -2.8686,-2.9289 -1.18,-0.7246 -2.44132,-1.087 -3.78405,-1.087 -1.36307,0 -2.64476,0.3523 -3.84508,1.0569 C 2.79735,21.613 1.83099,22.6094 1.0986,23.9178 0.366199,25.2262 0,26.746 0,28.4772 c 0,1.5499 0.345854,2.9489 1.03756,4.197 0.69171,1.2279 1.66824,2.1941 2.92959,2.8986 1.2817,0.7046 2.77701,1.0569 4.48593,1.0569 0.97654,0 1.94292,-0.1611 2.89912,-0.4832 0.9561,-0.322 1.7191,-0.7146 2.2887,-1.1775 0.5696,-0.4429 0.8545,-0.9361 0.8545,-1.4796 0,-0.4026 -0.1526,-0.7548 -0.4578,-1.0568 -0.3051,-0.3019 -0.6713,-0.4529 -1.0986,-0.4529 -0.3255,0 -0.6713,0.0906 -1.0375,0.2718 -0.1018,0.0603 -0.295,0.1811 -0.5799,0.3623 -0.2644,0.161 -0.6306,0.3221 -1.0986,0.4831 -0.46787,0.1409 -1.11889,0.2114 -1.95301,0.2114 -1.0986,0 -2.0853,-0.3322 -2.96011,-0.9965 C 4.43507,31.6274 3.8756,30.6914 3.63147,29.5038 H 13.7019 c 0.4883,0 0.9155,-0.151 1.2817,-0.4529 z M 3.66199,26.4843 c 0.42723,-2.1941 1.82082,-3.2912 4.18076,-3.2912 0.95619,0 1.81065,0.302 2.56335,0.9059 0.7528,0.6039 1.1698,1.3285 1.2512,2.174 v 0.2113 z"
       clip-rule="evenodd"
       fill-rule="evenodd" />
  </g>
</svg>

<svg width="200" height="200" viewBox="0 0 200 200" fill="none" xmlns="http://www.w3.org/2000/svg">
  <g transform="scale(1.8)">

<path fill-rule="evenodd" clip-rule="evenodd" d="M23.558 3.56975C16.5894 3.56975 10.7266 9.2335 10.7266 16.1378C10.7266 17.1236 9.92434 17.9227 8.93466 17.9227C7.94498 17.9227 7.14269 17.1236 7.14269 16.1378C7.14269 7.18833 14.6848 0 23.558 0C32.4313 0 39.9734 7.18833 39.9734 16.1378C39.9734 17.4252 39.8402 18.6742 39.5813 19.8733C40.4993 19.8917 41.3626 20.0723 42.1713 20.4152C43.0258 20.7575 43.748 21.2003 44.338 21.7438V21.7136C44.338 21.1902 44.5109 20.7575 44.8568 20.4152C45.2027 20.0529 45.6401 19.8717 46.169 19.8717C46.698 19.8717 47.1354 20.0429 47.4812 20.3851C47.8271 20.7273 48 21.1701 48 21.7136V34.4858C48 35.0092 47.8271 35.4521 47.4812 35.8144C47.1354 36.1566 46.698 36.3277 46.169 36.3277C45.6401 36.3277 45.2027 36.1566 44.8568 35.8144C44.5313 35.4722 44.3584 35.0394 44.338 34.516C43.8294 35.0998 43.1377 35.603 42.2629 36.0258C41.4084 36.4284 40.5031 36.6297 39.5469 36.6297C38.1432 36.6297 36.8716 36.2774 35.7323 35.5728C34.5931 34.8482 33.6877 33.8518 33.0164 32.5836C32.8058 32.1734 32.6293 31.7454 32.4868 31.2994L24.9366 40.3554C24.5962 40.7638 24.0909 41 23.558 41C23.0251 41 22.5199 40.7638 22.1794 40.3554L16.447 33.4797C15.8147 32.7213 15.9194 31.596 16.6807 30.9663C17.4421 30.3365 18.5719 30.4408 19.2042 31.1991L23.558 36.4213L33.629 24.3418C35.397 22.0981 36.3894 19.3021 36.3894 16.1378C36.3894 9.2335 30.5267 3.56975 23.558 3.56975ZM36.4015 26.604L35.5814 27.5877C35.56 27.8076 35.5492 28.0336 35.5492 28.2658C35.5492 29.7151 35.9561 30.9229 36.7699 31.8891C37.604 32.8352 38.6823 33.3083 40.0047 33.3083C41.327 33.3083 42.4053 32.8352 43.2394 31.8891C44.0735 30.9229 44.4906 29.7151 44.4906 28.2658C44.4906 26.8165 44.0735 25.6087 43.2394 24.6425C42.4053 23.6762 41.327 23.1931 40.0047 23.1931C39.4002 23.1931 38.8462 23.2973 38.3426 23.5055C37.8221 24.5929 37.1823 25.6177 36.4307 26.5681C36.4211 26.5802 36.4114 26.5922 36.4015 26.604ZM14.9836 29.0509C15.3498 28.7489 15.5431 28.3564 15.5634 27.8733C15.5634 26.4441 15.2074 25.1155 14.4954 23.8876C13.7833 22.6597 12.8271 21.6834 11.6268 20.9587C10.4468 20.2341 9.18548 19.8717 7.84275 19.8717C6.47968 19.8717 5.19799 20.224 3.99767 20.9286C2.79735 21.613 1.83099 22.6094 1.0986 23.9178C0.366199 25.2262 0 26.746 0 28.4772C0 30.0271 0.345854 31.4261 1.03756 32.6742C1.72927 33.9021 2.7058 34.8683 3.96715 35.5728C5.24885 36.2774 6.74416 36.6297 8.45308 36.6297C9.42962 36.6297 10.396 36.4686 11.3522 36.1465C12.3083 35.8245 13.0713 35.4319 13.6409 34.969C14.2105 34.5261 14.4954 34.0329 14.4954 33.4894C14.4954 33.0868 14.3428 32.7346 14.0376 32.4326C13.7325 32.1307 13.3663 31.9797 12.939 31.9797C12.6135 31.9797 12.2677 32.0703 11.9015 32.2515C11.7997 32.3118 11.6065 32.4326 11.3216 32.6138C11.0572 32.7748 10.691 32.9359 10.223 33.0969C9.75513 33.2378 9.10411 33.3083 8.26999 33.3083C7.17139 33.3083 6.18469 32.9761 5.30988 32.3118C4.43507 31.6274 3.8756 30.6914 3.63147 29.5038H13.7019C14.1902 29.5038 14.6174 29.3528 14.9836 29.0509ZM3.66199 26.4843C4.08922 24.2902 5.48281 23.1931 7.84275 23.1931C8.79894 23.1931 9.6534 23.4951 10.4061 24.099C11.1589 24.7029 11.5759 25.4275 11.6573 26.273V26.4843H3.66199Z" fill="white"/>
</g>
</svg>
